Obsidian-SemiLight/actions/22s/story-editor.svg

<svg viewBox="0 0 22 22" xmlns="http://www.w3.org/2000/svg"><path d="m3 3v3 13h1 5v-1h-5v-12h12v4h1v-4-1-2h-2v1h-1v-1h-8v1h-1v-1zm2 4v1h10v-1zm0 3v1h10v-1zm12 1-.996094.994141-.003906-.003907-5 4.998047.007812.007813-.003906 1.003906h-.003906v.990234.009766h2l.005859-.005859.003907-.003907c.004-.00002.005765.001953.009765.001954l-.005859-.00586.986328-.986328 4-3.996094-.705078-.708984-4.990234 4.986328-.59375-.591797 4.992187-4.988281.591797.59375.705078.703125 1-1zm-12 2v1h7v-1z" fill="#4d4d4d"/></svg>

<svg xmlns="http://www.w3.org/2000/svg" viewBox="0 0 22 22">
  <defs id="defs3051">
    <style type="text/css" id="current-color-scheme">
      .ColorScheme-Text {
        color:#4d4d4d;
      }
      .ColorScheme-Highlight {
        color:#3daee9;
      }
      </style>
  </defs>
 <path 
     style="fill:currentColor;fill-opacity:1;stroke:none" 
     d="M 3 3 L 3 6 L 3 19 L 4 19 L 9 19 L 9 18 L 4 18 L 4 6 L 16 6 L 16 10 L 17 10 L 17 6 L 17 5 L 17 3 L 15 3 L 15 4 L 14 4 L 14 3 L 6 3 L 6 4 L 5 4 L 5 3 L 3 3 z M 5 7 L 5 8 L 15 8 L 15 7 L 5 7 z M 5 10 L 5 11 L 15 11 L 15 10 L 5 10 z M 17 11 L 16.003906 11.994141 L 16 11.990234 L 11 16.988281 L 11.007812 16.996094 L 11.003906 18 L 11 18 L 11 18.990234 L 11 19 L 13 19 L 13.005859 18.994141 L 13.009766 18.990234 C 13.013766 18.990214 13.015531 18.992187 13.019531 18.992188 L 13.013672 18.986328 L 14 18 L 18 14.003906 L 17.294922 13.294922 L 12.304688 18.28125 L 11.710938 17.689453 L 16.703125 12.701172 L 17.294922 13.294922 L 18 13.998047 L 19 12.998047 L 17 11 z M 5 13 L 5 14 L 12 14 L 12 13 L 5 13 z "
     class="ColorScheme-Text"
     />
</svg>
